vesta-launcher/src/assets/search.svg

<?xml version="1.0" encoding="utf-8"?>
<svg xmlns="http://www.w3.org/2000/svg" viewBox="12.5 13 25 25"><path stroke="currentColor" d="M21.994 14.092c-4.677 0-8.5 3.823-8.5 8.5 0 4.676 3.823 8.5 8.5 8.5a8.434 8.434 0 0 0 4.846-1.534l6.094 6.094a1.5 1.5 0 1 0 2.121-2.121l-6.094-6.094a8.435 8.435 0 0 0 1.533-4.845c0-4.677-3.823-8.5-8.5-8.5Zm0 3c3.055 0 5.5 2.444 5.5 5.5 0 3.055-2.445 5.5-5.5 5.5a5.478 5.478 0 0 1-5.5-5.5c0-3.056 2.445-5.5 5.5-5.5Z"/></svg>

<?xml version="1.0" encoding="utf-8"?>
<svg viewBox="13.494 14.092 22.0221 22.022" xmlns="http://www.w3.org/2000/svg">
  <path d="M 21.994 14.092 C 17.317 14.092 13.494 17.915 13.494 22.592 C 13.494 27.268 17.317 31.092 21.994 31.092 C 23.793 31.092 25.462 30.521 26.84 29.558 L 32.934 35.652 C 33.733 36.485 35.135 36.14 35.457 35.031 C 35.612 34.495 35.457 33.917 35.055 33.531 L 28.961 27.437 C 29.923 26.06 30.494 24.391 30.494 22.592 C 30.494 17.915 26.671 14.092 21.994 14.092 Z M 21.994 17.092 C 25.049 17.092 27.494 19.536 27.494 22.592 C 27.494 25.647 25.049 28.092 21.994 28.092 C 18.939 28.092 16.494 25.647 16.494 22.592 C 16.494 19.536 18.939 17.092 21.994 17.092 Z" stroke="currentColor"/>
</svg>
